X:1
T:O quam metuendus
T:Andrea Gabrieli
T:Source : Liber primus Ecclesiasticarum Cantionum---Venetia---Ang.Gardano---1576. Editor : André Vierendeels (10/09/17).
T:O quam metuendus
T:©
T:©
T:©
T:©
C:Andrea Gabrieli
Z:©
%%score [ 1 2 3 4 ]
L:1/8
Q:1/4=120
M:2/2
K:F
V:1 treble nm="Soprano" snm="S"
V:2 treble nm="Alto" snm="A"
V:3 treble-8 nm="Tenor 1" snm="T 1"
V:4 treble-8 nm="Tenor 2" snm="T 2"
V:1
 z8 | z8 | z8 | d8 | c4 B2 G2 | B2 B2 A4 | z4 g4- | g4 f4 | d2 _e2 d2 B2 | A2 d4 c2 | B2 AG FGAB | %11
w: |||O|quam me- tu-|en- dus est,|O|_ quam|me- tu- en- dus|est lo- cus|i- * * * * * *|
 c4 d4 | z8 | z4 d4- | d4 c4 | B2 G2 B2 B2 | A2 B2 c2 d2- | d2 c2 d4 | z8 | z8 | z4 z2 A2- | %21
w: * ste,||O|_ quam|me- tu- en- dus|est lo- cus i-|* * ste,|||ve-|
 A2 A2 d2 d2 | c4 B3 A | Bc d4 c2 | d2 A4 A2 | B2 c2 d4 | d3 c B2 B2 | A4 z2 d2- | d2 d2 g2 g2 | %29
w: * re non est|hic a- *|* * * li-|ud, ve- re|non est hic|a- * * li-|ud, ve-|* re non est|
 f4 B3 A | Bc d4 c2 | d2 f4 f2 | d2 f2 e4 | d2 d4 d2 | B2 d4 c2- | c2 B2 c3 B | A8 | z2 A2 d4- | %38
w: hic a- *|* * * li-|ud ni- si|do- mus De-|i, ni- si|do- mus De-||i|et por-|
 d2 c2 f4 | e4 d2 f2- | fedc B2 c2 | B2 A2 G2 B2 | B2 A4 G2 | A4 z2 D2 | A6 F2 | B4 A4 | %46
w: * ta ce-|li, et por-|* * * * * ta|ce- li, et por-|ta ce- *|li, et|por- ta|ce- li,|
 z2 A4 d2- | d2 c2 f4 | e4 z4 | z2 A2 d4- | d2 c2 f3 e/d/ | e4 d4 | ^c8 |] %53
w: et por-|* ta ce-|li,|et por-|* ta ce- * *||li.|
V:2
 A8 | G4 F2 D2 | F2 F2 E4 | F2 G2 F3 G | A4 G4 | z2 G4 F2 | E2 C2 D2 _E2 | D3 E FG A2 | G6 D2 | %9
w: O|quam mo- tu-|en- dus est|lo- cus i- *|* ste,|O quam|mo- tu- en- dus|est _ _ _ _|lo- cus|
 F4 E4 | z4 A4- | A4 G4 | F2 D2 F2 E2 | D2 G4 F2- | FG A2 AGFE | D2 E2 F2 G2 | F2 ED F4 | E4 F4- | %18
w: i- ste,|O|_ quam|me- tu- en- dus|est lo- *|* * cus i- * * *|* ste, lo- cus|i- * * *|* ste,|
 F4 z4 | z2 D4 D2 | G2 G2 F4 | z2 D4 D2 | E2 F2 G4 | G3 F E2 E2 | D2 D4 D2 | G2 G2 F2 FE | %26
w: _|ve- re|non est hic,|ve- re|non est hic|a- * * li-|ud, ve- re|non est hic a- *|
 FG A4 G2 | AGFE D4 | z8 | F4 F2 D2- | D2 D2 A4- | A4 D3 E | F3 G A4 | F4 F2 D2- | D2 D2 F3 E/F/ | %35
w: * * * li-|ud, _ _ _ _||ni- si do-|* mus De-||* * i,|ni- si do-|* mus De- * *|
 G4 G2 E2 | F6 E2 | A4 F2 G2 | A6 F2 | A4 A2 A2 | B3 A GF G2- | G2 F2 D3 C | DE F4 ED | E4 D3 E | %44
w: * i et|por- ta|c- li, et|por- ta|ce- li, et|por- * * * *|* ta ce- *|||
 FEDE FG A2- | A2 G4 F2 | E4 z2 D2 | A6 F2 | A4 A4 | G2 A4 G2 | F2 E2 D2 A2- | A2 A2 A4 | A8 |] %53
w: ||li, et|por- ta|ce- li,|et por- ta|ce- li, et por-|* ta ce-|li.|
V:3
 z8 | z8 | z8 | z8 | z8 | d8 | c4 B2 G2 | B2 B2 A4 | B2 c2 B3 c | d4 A4 | f8 | e4 d2 B2 | %12
w: |||||O|quam me- tu-|en- dus est|lo- cus i- *|* ste,|O|quam me- tu-|
 d2 d2 c4 | f2 e2 d4 | f4 z4 | B2 c2 B3 c | d4 A4 | z2 A4 A2 | d2 d2 c4 | B3 A Bc d2- | %20
w: en- dus est|lo- cus i-|ste,|lo- cus i- *|* ste,|ve- re|non est hic|a- * * * *|
 d2 c2 d3 e | fedc B4 | A4 z2 G2- | G2 G2 g2 g2 | f4 f4- | f2 e2 d4- | d8 | z2 f4 f2 | d2 f2 e4 | %29
w: * li- * *||ud, ve-|* re non est|a- li-|* * ud|_|ni- si|do- mus De-|
 d4 z2 g2- | g2 g2 f2 e2 | fedc BA B2- | Bc d4 c2 | d2 B4 B2 | G2 B2 ABcA | d4 c2 G2 | d6 c2 | %37
w: i, ni-|* si do- mus|De- * * * * * *||i, ni- si|do- mus De- * * *|* i et|por- ta|
 f6 ed | e4 d4 | z2 A2 d4- | d2 G2 _e4 | d3 c B4 | z2 c2 d4- | d2 c2 f4 | d8- | d4 z4 | z8 | %47
w: ce- * *|* li,|et por-|* ta ce-|* * li,|et por-|* ta ce-|li,|_||
 A4 d4- | d2 c2 f4 | e4 z4 | z2 A4 d2- | d2 c2 f4 | e8 |] %53
w: et por-|* ta ce-|li,|et por-|* ta ce-|li.|
V:4
 z8 | z4 d4- | d4 c4 | B2 G2 B2 B2 | A4 B2 c2 | B3 c d4 | A4 G2 C2 | G4 D4 | z8 | z8 | d8 | %11
w: |O|_ quam|me- tu- en- dus|est lo- cus|i- * *|ste, lo- cus|i- ste,|||O|
 c4 B2 G2 | B2 B2 A4 | B2 c2 B3 c | d4 A4 | z8 | F2 G2 F3 G | A4 D2 D2- | D2 D2 E2 F2 | G4 G3 F | %20
w: quam me- tu-|en- dus est|lo- cus i- *|* ste,||lo- cus i- *|* ste, ve-|* re non est|hic a- *|
 E2 E2 D4- | D4 z4 | z8 | z8 | z8 | z4 z2 D2- | D2 D2 G2 G2 | F4 B3 A | Bc d4 c2 | d2 B4 B2 | %30
w: * li- ud,|_||||ve-|* re non est|hic a- *|* * * li-|ud ni- si|
 G2 B2 A4 | D4 z4 | z8 | z4 z2 G2- | G2 G2 F2 A2 | G4 C4 | z2 D2 A4- | A2 F2 B4 | A2 A2 d4- | %39
w: do- mus De-|i,||ni-|* si do- mus|De- i|et por-|* ta ce-|li, et por-|
 d2 c2 f4 | d4 z4 | D4 G4- | G2 F2 B4 | A4 D4 | z8 | G4 d4- | d2 c2 f4 | e4 d4 | z2 A4 d2- | %49
w: * ta ce-|li,|et por-|* ta ce-|* li,||et por-|* ta ce-|* li,|et por-|
 d2 c2 B4 | A4 D4 | A2 A2 d4 | A8 |] %53
w: * ta ce-|li, et|por- ta ce-|li.|

